X:1
T:Mursheen Durkin
M:4/4
L:1/4
K:C
 C3/4 D/4| E E D C| D G G A| B G F D| D C2| C3/4 D/4| E E D C| D G2 A|\
 B/2B/2 G A B| c3| G| c c d c| B G G A| B G F D| D C2| C3/4 D/4| E2 D C|\
 D G G A| B G F- D| C3||
